; generated by Slic3r 1.3.1-dev (Build (Unknown revision)) on 1970-01-01 at 03:38:12

; Print Config Notes: 
; This profile prints tissue model with upright square lattice structure.
; 
; external perimeters extrusion width = 0.28mm (0.18mm^3/s)
; perimeters extrusion width = 0.35mm (0.24mm^3/s)
; infill extrusion width = 0.31mm (0.42mm^3/s)
; solid infill extrusion width = 0.35mm (0.48mm^3/s)
; top infill extrusion width = 0.35mm (0.48mm^3/s)

M104 S200 T1 ; set temperature
G28 ; home all axes
G1 Z5 F5000 ; lift nozzle

; Filament gcode

M109 S200 T1 ; set temperature and wait for it to be reached
G21 ; set units to millimeters
G90 ; use absolute coordinates
M83 ; use relative distances for extrusion
T1 ; change extruder
G1 Z0.150 F4800.000 ; move to next layer (0)
G1 X30.575 Y-3.590 F4800.000 ; move to first external perimeter point
G1 F300
G1 X30.575 Y3.590 E0.01795 ; external perimeter
G1 X13.595 Y3.590 E0.04245 ; external perimeter
G1 X12.288 Y2.635 E0.00405 ; external perimeter
G1 X10.904 Y1.850 E0.00398 ; external perimeter
G1 X9.440 Y1.228 E0.00398 ; external perimeter
G1 X7.915 Y0.779 E0.00398 ; external perimeter
G1 X6.348 Y0.506 E0.00398 ; external perimeter
G1 X4.758 Y0.415 E0.00398 ; external perimeter
G1 X-4.758 Y0.415 E0.02379 ; external perimeter
G1 X-6.348 Y0.506 E0.00398 ; external perimeter
G1 X-7.915 Y0.779 E0.00398 ; external perimeter
G1 X-9.440 Y1.228 E0.00398 ; external perimeter
G1 X-10.904 Y1.850 E0.00398 ; external perimeter
G1 X-12.288 Y2.635 E0.00398 ; external perimeter
G1 X-13.595 Y3.590 E0.00405 ; external perimeter
G1 X-30.575 Y3.590 E0.04245 ; external perimeter
G1 X-30.575 Y-3.590 E0.01795 ; external perimeter
G1 X-13.595 Y-3.590 E0.04245 ; external perimeter
G1 X-12.288 Y-2.635 E0.00405 ; external perimeter
G1 X-10.904 Y-1.850 E0.00398 ; external perimeter
G1 X-9.440 Y-1.228 E0.00398 ; external perimeter
G1 X-7.915 Y-0.779 E0.00398 ; external perimeter
G1 X-6.348 Y-0.506 E0.00398 ; external perimeter
G1 X-4.758 Y-0.415 E0.00398 ; external perimeter
G1 X4.758 Y-0.415 E0.02379 ; external perimeter
G1 X6.348 Y-0.506 E0.00398 ; external perimeter
G1 X7.915 Y-0.779 E0.00398 ; external perimeter
G1 X9.440 Y-1.228 E0.00398 ; external perimeter
G1 X10.904 Y-1.850 E0.00398 ; external perimeter
G1 X12.288 Y-2.635 E0.00398 ; external perimeter
G1 X13.595 Y-3.590 E0.00405 ; external perimeter
G1 X30.575 Y-3.590 E0.04236 ; external perimeter
G1 X30.575 Y-2.000 E0.04236 ; external perimeter
;END gcode for filament

M104 S0 ; turn off temperature
G28 X0  ; home X axis
M84     ; disable motors

M140 S0 ; set bed temperature
; filament used = 3.6mm (0.0cm3)
; total filament cost = 0.0

