; generated by Slic3r 1.3.0-dev on 1970-01-01 at 00:16:20

; This profile prints tissue model with upright square lattice structure.

; external perimeters extrusion width = 0.41mm (2.64mm^3/s)
; perimeters extrusion width = 0.43mm (2.81mm^3/s)
; infill extrusion width = 0.43mm (2.81mm^3/s)
; solid infill extrusion width = 0.43mm (2.81mm^3/s)
; top infill extrusion width = 0.43mm (1.40mm^3/s)

M107 ; disable fan
M104 S200 T1 ; set temperature
G28 ; home all axes
G1 Z5 F5000 ; lift nozzle

; Filament gcode

M109 S200 T1 ; set temperature and wait for it to be reached
G21 ; set units to millimeters
G90 ; use absolute coordinates
M83 ; use relative distances for extrusion
T1 ; change extruder

; Start at centre, track right

G1 X10.275 Y0.872 E0.00236
G1 X10.347 Y-0.000 E0.00236
G1 X10.275 Y-0.872 E0.00236
G1 X10.063 Y-1.719 E0.00236
G1 X9.716 Y-2.515 E0.00234
G1 X9.244 Y-3.237 E0.00233
G1 X8.601 Y-3.909 E0.00251
G1 X7.986 Y-4.375 E0.00208
G1 X7.237 Y-4.758 E0.00227
G1 X6.436 Y-5.000 E0.00226
G1 X5.615 Y-5.093 E0.00223
G1 X0.830 Y-6.143 E0.01322
G1 X-0.446 Y-6.494 E0.00357
G1 X-1.681 Y-6.976 E0.00358
G1 X-4.252 Y-8.299 E0.00781
G1 X-5.701 Y-8.862 E0.00420
G1 X-7.196 Y-9.268 E0.00418
G1 X-8.722 Y-9.513 E0.00417
G1 X-10.263 Y-9.595 E0.00417
G1 X-14.933 Y-9.595 E0.01261
G1 X-15.455 Y-9.595 E0.00125
G1 X-15.701 Y-9.679 E0.00070
G1 X-15.932 Y-9.808 E0.00072
G1 X-16.140 Y-9.977 E0.00072
G1 X-16.317 Y-10.181 E0.00073
G1 X-16.445 Y-10.393 E0.00067
G1 X-16.559 Y-10.670 E0.00081
G1 X-16.617 Y-10.939 E0.00074
G1 X-16.631 Y-11.499 E0.00151
G1 X-16.617 Y-11.689 E0.00051
G1 X-16.575 Y-11.873 E0.00051
G1 X-16.506 Y-12.048 E0.00051
G1 X-16.413 Y-12.209 E0.00050
G1 X-16.296 Y-12.353 E0.00050
G1 X-16.160 Y-12.475 E0.00050
G1 X-16.007 Y-12.574 E0.00049
G1 X-15.857 Y-12.639 E0.00044
G1 X-15.667 Y-12.690 E0.00053
G1 X-15.487 Y-12.705 E0.00049
G1 X-2.318 Y-12.705 E0.03556
G1 X9.768 Y-9.381 E0.03384
G1 X10.864 Y-9.001 E0.00313
G1 X11.905 Y-8.480 E0.00314
G1 X12.876 Y-7.827 E0.00316
G1 X13.762 Y-7.050 E0.00318
G1 X14.549 Y-6.164 E0.00320
G1 X15.225 Y-5.181 E0.00322
G1 X15.778 Y-4.116 E0.00324
G1 X16.202 Y-2.987 E0.00326
G1 X16.487 Y-1.811 E0.00327
G1 X16.632 Y-0.607 E0.00327
G1 X16.632 Y0.607 E0.00328
G1 X16.487 Y1.811 E0.00327
G1 X16.202 Y2.987 E0.00327
G1 X15.778 Y4.116 E0.00326
G1 X15.225 Y5.181 E0.00324
G1 X14.549 Y6.164 E0.00322
G1 X13.762 Y7.050 E0.00320
G1 X12.876 Y7.827 E0.00318
G1 X11.905 Y8.480 E0.00316
G1 X10.864 Y9.001 E0.00314
G1 X9.768 Y9.381 E0.00313
G1 X-2.318 Y12.705 E0.03384
G1 X-10.737 Y12.705 E0.02273
G1 X-10.917 Y12.690 E0.00049
G1 X-11.091 Y12.646 E0.00048
G1 X-11.242 Y12.581 E0.00044
G1 X-11.410 Y12.475 E0.00054
G1 X-11.546 Y12.353 E0.00049
G1 X-11.663 Y12.209 E0.00050
G1 X-11.756 Y12.048 E0.00050
G1 X-11.825 Y11.873 E0.00051
G1 X-11.867 Y11.690 E0.00051
G1 X-11.876 Y10.965 E0.00196
G1 X-11.834 Y10.723 E0.00066
G1 X-11.756 Y10.490 E0.00066
G1 X-11.644 Y10.274 E0.00066
G1 X-11.502 Y10.078 E0.00065
G1 X-11.332 Y9.909 E0.00065
G1 X-11.140 Y9.769 E0.00064
G1 X-10.929 Y9.664 E0.00064
G1 X-10.708 Y9.595 E0.00062
G1 X-10.263 Y9.595 E0.00120
G1 X-8.722 Y9.513 E0.00417
G1 X-7.196 Y9.268 E0.00417
G1 X-5.701 Y8.862 E0.00418
G1 X-4.252 Y8.299 E0.00420
G1 X-1.681 Y6.976 E0.00781
G1 X-0.446 Y6.494 E0.00358
G1 X0.830 Y6.143 E0.00357
G1 X5.615 Y5.093 E0.01322
G1 X6.436 Y5.000 E0.00223
G1 X7.237 Y4.758 E0.00226
G1 X7.986 Y4.375 E0.00227
G1 X8.662 Y3.863 E0.00229
G1 X9.244 Y3.237 E0.00231
G1 X9.716 Y2.515 E0.00233
G1 X10.063 Y1.719 E0.00234
G1 X10.275 Y0.872 E0.00236
G1 X10.347 Y-0.000 E0.00236
G1 X10.275 Y-0.872 E0.00236

G1 X13.886 Y-0.540 
G1 X13.885 Y0.549 E0.00294
G1 X13.740 Y1.627 E0.00293
G1 X13.451 Y2.673 E0.00292
G1 X13.026 Y3.666 E0.00290
G1 X12.473 Y4.586 E0.00288
G1 X11.803 Y5.415 E0.00286
G1 X11.029 Y6.136 E0.00284
G1 X10.166 Y6.736 E0.00282
G1 X9.233 Y7.202 E0.03396
G1 X-2.880 Y10.586 E0.00501
G1 X-6.517 Y10.974 E0.00499
G1 X-8.364 Y11.081 E0.00264
G1 X-9.500 Y9.500
G1 X-8.364 Y11.081 E0.00264
G1 X-9.5 Y12.9 E0.002
; Back track inner loop
G1 X-8.364 Y11.081
G1 X-6.517 Y10.974 
G1 X-2.880 Y10.586 
G1 X-2.880 Y10.586 
G1 X9.233 Y7.202 
G1 X10.166 Y6.736 
G1 X11.029 Y6.136 
G1 X11.803 Y5.415 
G1 X12.473 Y4.586 
G1 X13.026 Y3.666 
G1 X13.451 Y2.673 
G1 X13.740 Y1.627 
G1 X13.885 Y0.549 
; Finish inner loop
G1 X13.886 Y-0.540 E0.00294
G1 X13.741 Y-1.618 E0.00294
G1 X13.454 Y-2.664 E0.00293
G1 X13.031 Y-3.657 E0.00292
G1 X12.478 Y-4.578 E0.00290
G1 X11.809 Y-5.407 E0.00288
G1 X11.036 Y-6.130 E0.00286
G1 X10.174 Y-6.731 E0.00284
G1 X9.234 Y-7.202 E0.00284
G1 X-2.580 Y-10.586 E0.03396
G1 X-6.517 Y-11.05 E0.00500
G1 X-13.091 Y-11.15 E0.01546
G1 X-13.933 Y-9.600 
G1 X-13.091 Y-11.15 E0.01546
G1 X-13.933 Y-12.700 E0.00281

	;	----- END ----- 

M104 S0 ; turn off temperature
G1 X0 Y-25 Z5  ; Move away from print
M84     ; disable motors

