; generated by Slic3r 1.3.0-dev on 1970-01-01 at 00:16:20

; This profile prints tissue model with upright square lattice structure.

; external perimeters extrusion width = 0.41mm (2.64mm^3/s)
; perimeters extrusion width = 0.43mm (2.81mm^3/s)
; infill extrusion width = 0.43mm (2.81mm^3/s)
; solid infill extrusion width = 0.43mm (2.81mm^3/s)
; top infill extrusion width = 0.43mm (1.40mm^3/s)

M107 ; disable fan
M104 S200 T1 ; set temperature
G28 ; home all axes
G1 Z5 F5000 ; lift nozzle

; Filament gcode

M109 S200 T1 ; set temperature and wait for it to be reached
G21 ; set units to millimeters
G90 ; use absolute coordinates
M83 ; use relative distances for extrusion
T1 ; change extruder

; Start at centre, track right

 ; Begin inner 
G1 Z0.500 F1200
G1 X10 Y2.852 F1200
G1 F300
G1 X10.396 Y2.852 E0.01764
G1 X10.810 Y1.950 E0.01764
G1 X11.064 Y0.989 E0.01764
G1 X11.149 Y0.000 E0.01764
G1 X11.064 Y-0.989 E0.01764
G1 X10.810 Y-1.950 E0.01764
G1 X10.396 Y-2.852 E0.01764
G1 X9.833 Y-3.670 E0.01764
G1 X9.139 Y-4.380 E0.01764
G1 X8.906 Y-4.547 E0.00509
G1 X8.333 Y-4.960 E0.01255
G1 X7.439 Y-5.394 E0.01764
G1 X6.485 Y-5.668 E0.01764
G1 X5.527 Y-5.771 E0.01711
G1 X-0.001 Y-6.923 E0.10030
G1 X-1.466 Y-7.306 E0.02691
G1 X-2.881 Y-7.831 E0.02681
G1 X-5.858 Y-9.286 E0.05886
G1 X-7.551 Y-9.911 E0.03205
G1 X-9.299 Y-10.362 E0.03205
G1 X-11.082 Y-10.634 E0.03205
G1 X-12.879 Y-10.725 E0.03196
G1 X-18.207 Y-10.725 E0.09464
G1 X-18.869 Y-10.725 E0.09452
G1 F1800
G1 X-18.869 Y-10.725 F1200
G1 X-19.115 Y-10.805 E0.00459
G1 X-19.358 Y-10.934 E0.00488
G1 X-19.575 Y-11.102 E0.00488
G1 X-19.760 Y-11.305 E0.00488
G1 X-19.908 Y-11.536 E0.00488
G1 X-20.013 Y-11.789 E0.00488
G1 X-20.074 Y-12.054 E0.00483
G1 X-20.089 Y-12.644 E0.01049
G1 X-20.075 Y-12.831 E0.00332
G1 X-20.032 Y-13.007 E0.00322
G1 X-19.866 Y-13.331 E0.00648
G1 X-19.751 Y-13.466 E0.00315
G1 X-19.613 Y-13.584 E0.00322
G1 X-19.459 Y-13.679 E0.00322
G1 X-19.291 Y-13.748 E0.00322
G1 X-19.115 Y-13.790 E0.00322
G1 X-18.926 Y-13.805 E0.00337
G1 X-3.705 Y-13.805 E0.27037
G1 X10.263 Y-10.155 E0.25646
G1 X11.517 Y-9.742 E0.02346
G1 X12.704 Y-9.178 E0.02333
G1 X13.810 Y-8.471 E0.02333
G1 X14.820 Y-7.630 E0.02333
G1 X15.717 Y-6.671 E0.02333
G1 X16.487 Y-5.606 E0.02333
G1 X17.118 Y-4.454 E0.02333
G1 X17.600 Y-3.233 E0.02333
G1 X17.926 Y-1.960 E0.02333
G1 X18.090 Y-0.657 E0.02333
G1 X18.090 Y0.657 E0.02333
G1 X17.926 Y1.960 E0.02333
G1 X17.600 Y3.233 E0.02333
G1 X17.118 Y4.454 E0.02333
G1 X16.487 Y5.606 E0.02333
G1 X15.717 Y6.671 E0.02333
G1 X14.820 Y7.630 E0.02333
G1 X13.810 Y8.471 E0.02333
G1 X12.704 Y9.178 E0.02333
G1 X11.517 Y9.742 E0.02333
G1 X10.263 Y10.155 E0.02346
G1 X-3.705 Y13.805 E0.25646
G1 X-13.426 Y13.805 E0.17267
G1 X-13.615 Y13.790 E0.00337
G1 X-13.791 Y13.748 E0.00322
G1 X-13.959 Y13.679 E0.00322
G1 X-14.113 Y13.584 E0.00322
G1 X-14.251 Y13.466 E0.00322
G1 X-14.369 Y13.328 E0.00322
G1 X-14.463 Y13.174 E0.00322
G1 X-14.532 Y13.007 E0.00322
G1 X-14.575 Y12.831 E0.00322
G1 X-14.590 Y12.643 E0.00335
G1 X-14.583 Y12.078 E0.01002
G1 X-14.539 Y11.840 E0.00431
G1 X-14.458 Y11.609 E0.00433
G1 X-14.342 Y11.395 E0.00433
G1 X-14.239 Y11.260 E0.00302
G1 X-14.014 Y11.031 E0.00571
G1 X-13.816 Y10.895 E0.00427
G1 X-13.595 Y10.790 E0.00433
G1 X-13.375 Y10.725 E0.00408
G1 X-12.879 Y10.725 E0.00881
G1 X-11.082 Y10.634 E0.03196
G1 X-9.299 Y10.362 E0.03205
G1 X-7.551 Y9.911 E0.03205
G1 X-5.858 Y9.286 E0.03205
G1 X-2.881 Y7.831 E0.05886
G1 X-1.466 Y7.306 E0.02681
G1 X-0.001 Y6.923 E0.02691
G1 X5.527 Y5.771 E0.10030
G1 X6.485 Y5.668 E0.01711
G1 X7.439 Y5.394 E0.01764
G1 X8.333 Y4.960 E0.01764
G1 X9.139 Y4.380 E0.01764
G1 X9.833 Y3.670 E0.01764
G1 X10.396 Y2.852 E0.01764
G1 X10.396 Y2.852 E0.01764
G1 X10.810 Y1.950 E0.01764
G1 X11.064 Y0.989 E0.01764
G1 X11.149 Y0.000 E0.01764
; BEGIN INNER C->L
G1 X14.822 Y-0.002 F1200
G1 X14.731 Y1.222 E0.1
G1 X14.459 Y2.418 E0.1
G1 X14.011 Y3.561 E0.02180
G1 X13.399 Y4.625 E0.02180
G1 X12.635 Y5.586 E0.02180
G1 X11.737 Y6.422 E0.02180
G1 X10.724 Y7.115 E0.02180
G1 X9.615 Y7.652 E0.02189
G1 X-4.411 Y11.375 E0.25777
G1 X-6.473 Y11.833 E0.03752
G1 X-8.570 Y12.122 E0.03760
G1 X-10.681 Y12.239 E0.03755
G1 X-11.918 Y12.239 E0.02197
; Left Apex
G1 X-12.689 Y13.695 F1200
G1 X-11.912 Y12.349 E0.02762
G1 X-12.617 Y10.906 E0.02674
; Retrack Inner
G1 X-11.912 Y12.349 F1200
G1 X-11.918 Y12.239 
G1 X-10.681 Y12.239 
G1 X-8.570 Y12.122 
G1 X-6.473 Y11.833 
G1 X-4.411 Y11.375 
G1 X9.615 Y7.652 
G1 X10.724 Y7.115 
G1 X11.737 Y6.422 
G1 X12.635 Y5.586 
G1 X13.399 Y4.625 
G1 X14.011 Y3.561 
G1 X14.459 Y2.418 E0.1
; Centre to right inner
G1 X14.731 Y1.222 E0.02180
G1 X14.822 Y-0.002 E0.02180
G1 X14.730 Y-1.226 E0.02180
G1 X14.457 Y-2.423 E0.02180
G1 X14.009 Y-3.566 E0.02180
G1 X13.396 Y-4.629 E0.02180
G1 X12.631 Y-5.589 E0.02180
G1 X11.732 Y-6.425 E0.02180
G1 X10.719 Y-7.118 E0.02188
G1 X9.610 Y-7.654 E0.25768
G1 X-4.411 Y-11.375 E0.03752
G1 X-6.473 Y-11.833 E0.03760
G1 X-8.570 Y-12.122 E0.03755
G1 X-10.681 Y-12.239 E0.11957
G1 X-17.412 Y-12.239 E0.1
G1 X-18.189 Y-13.695 F1200
G1 X-17.412 Y-12.349 E0.1
G1 X-18.267 Y-10.835 E0.1

		;	----- END ----- 

G28 X0 Y0 Z5  ; Move away from print
M84     ; disable motors

