; generated by Slic3r 1.3.0-dev on 1970-01-01 at 00:16:20

; This profile prints tissue model with upright square lattice structure.

; external perimeters extrusion width = 0.41mm (2.64mm^3/s)
; perimeters extrusion width = 0.43mm (2.81mm^3/s)
; infill extrusion width = 0.43mm (2.81mm^3/s)
; solid infill extrusion width = 0.43mm (2.81mm^3/s)
; top infill extrusion width = 0.43mm (1.40mm^3/s)

M107 ; disable fan
M104 S200 T1 ; set temperature
G28 ; home all axes
G1 Z5 F5000 ; lift nozzle

; Filament gcode

M109 S200 T1 ; set temperature and wait for it to be reached
G21 ; set units to millimeters
G90 ; use absolute coordinates
M83 ; use relative distances for extrusion
T1 ; change extruder

G1 X9.4 Y0.813 F1200
G1 X9.914 Y0.813 E0.01439
G1 X9.984 Y0.000 E0.01439
G1 X9.914 Y-0.813 E0.01439
G1 X9.707 Y-1.601 E0.01439
G1 X9.351 Y-2.371 E0.01496
G1 X8.909 Y-3.017 E0.01381
G1 X8.340 Y-3.602 E0.01439
G1 X7.674 Y-4.086 E0.01453
G1 X6.902 Y-4.459 E0.01514
G1 X6.167 Y-4.672 E0.01349
G1 X5.318 Y-4.772 E0.01509
G1 X0.828 Y-5.708 E0.08094
G1 X-0.368 Y-6.021 E0.02181
G1 X-1.522 Y-6.448 E0.02171
G1 X-3.969 Y-7.639 E0.04803
G1 X-4.881 Y-7.989 E0.01722
G1 X-5.338 Y-8.142 E0.00851
G1 X-6.061 Y-8.346 E0.01326
G1 X-6.771 Y-8.513 E0.01287
G1 X-7.268 Y-8.605 E0.00890
G1 X-8.256 Y-8.742 E0.01762
G1 X-9.712 Y-8.820 E0.02573
G1 X-13.779 Y-8.820 E0.07176
;right horn
G1 X-14.229 Y-8.820 E0.00760
G1 X-14.613 Y-8.820 E0.00534
G1 X-14.866 Y-8.913 E0.00757
G1 X-15.181 Y-9.131 E0.00490
G1 X-15.342 Y-9.319 E0.00343
G1 X-15.433 Y-9.467 E0.00413
G1 X-15.514 Y-9.660 E0.00423
G1 X-15.561 Y-9.868 E0.00942
G1 X-15.574 Y-10.344 E0.00435
G1 X-15.545 Y-10.562 E0.00412
G1 X-15.475 Y-10.758 E0.00557
G1 X-15.310 Y-10.986 E0.00423
G1 X-15.140 Y-11.116 E0.00412
G1 X-14.952 Y-11.206 E0.00487
G1 X-14.709 Y-11.247 E0.01003
G1 X-14.202 Y-11.250 E0.00153
G1 X-13.752 Y-11.250 E0.00306
G1 F1800
G1 X-2.219 Y-11.249 E0.20306
G1 X9.203 Y-8.265 E0.20786
G1 X10.224 Y-7.927 E0.01895
G1 X11.189 Y-7.467 E0.01882
G1 X12.089 Y-6.891 E0.01882
G1 X12.909 Y-6.206 E0.01881
G1 X13.638 Y-5.425 E0.01881
G1 X13.796 Y-5.228 E0.00445
G1 X14.263 Y-4.559 E0.01436
G1 X14.437 Y-4.273 E0.00590
G1 X14.776 Y-3.622 E0.01292
G1 X14.933 Y-3.267 E0.00684
G1 X15.167 Y-2.628 E0.01198
G1 X15.285 Y-2.232 E0.00728
G1 X15.432 Y-1.594 E0.01154
G1 X15.510 Y-1.105 E0.00872
G1 X15.565 Y-0.534 E0.01010
G1 X15.582 Y-0.014 E0.00916
G1 X15.565 Y0.534 E0.00966
G1 X15.507 Y1.133 E0.01060
G1 X15.432 Y1.594 E0.00822
G1 X15.293 Y2.205 E0.01104
G1 X15.167 Y2.628 E0.00778
G1 X14.933 Y3.267 E0.01198
G1 X14.776 Y3.622 E0.00684
G1 X14.423 Y4.298 E0.01342
G1 F1800
G1 X14.263 Y4.559 E0.00606
G1 X13.813 Y5.205 E0.01557
G1 X13.638 Y5.425 E0.00557
G1 X12.909 Y6.206 E0.02113
G1 X12.206 Y6.804 E0.01825
G1 X11.189 Y7.467 E0.02402
G1 X10.224 Y7.927 E0.02114
G1 X9.203 Y8.265 E0.02128
G1 X-2.219 Y11.249 E0.23350
G1 X-9.252 Y11.250 E0.13910
G1 X-9.327 Y11.231 E0.00153
G1 F1800
G1 X-9.477 Y11.194 E0.00355
G1 F1800
G1 X-9.629 Y11.231 E0.00335
G1 F1800
G1 X-9.705 Y11.250 E0.00140
G1 X-10.349 Y11.230 E0.01149
G1 X-10.610 Y11.135 E0.00496
G1 X-10.795 Y10.999 E0.00409
G1 X-10.902 Y10.879 E0.00286
G1 X-11.028 Y10.627 E0.00502
G1 X-11.062 Y10.491 E0.00252
G1 X-11.070 Y10.342 E0.00265
G1 X-11.069 Y9.887 E0.00813
G1 X-11.033 Y9.693 E0.00350
G1 X-10.939 Y9.462 E0.00446
G1 F1800
G1 X-10.853 Y9.312 E0.00345
G1 X-10.717 Y9.150 E0.00422
G1 X-10.555 Y9.014 E0.00422
G1 X-10.372 Y8.908 E0.00422
G1 X-10.119 Y8.820 E0.00535
G1 X-9.702 Y8.820 E0.00832
G1 X-9.626 Y8.836 E0.00155
G1 F1800
G1 X-9.475 Y8.870 E0.00364
G1 F1800
G1 X-9.332 Y8.827 E0.00350
G1 F1800
G1 X-9.260 Y8.805 E0.00152
G1 X-8.256 Y8.739 E0.02052
G1 F1800
G1 X-7.868 Y8.695 E0.00689
G1 X-6.771 Y8.514 E0.01962
G1 X-5.167 Y8.090 E0.02927
G1 X-3.871 Y7.599 E0.02446
G1 X-1.522 Y6.448 E0.04616
G1 X-0.368 Y6.021 E0.02171
G1 X0.828 Y5.708 E0.02181
G1 X5.318 Y4.772 E0.08094
G1 X6.167 Y4.672 E0.01509
G1 X6.950 Y4.442 E0.01439
G1 X7.674 Y4.086 E0.01425
G1 X8.340 Y3.602 E0.01453
G1 X8.909 Y3.017 E0.01439
G1 X9.369 Y2.343 E0.01439
G1 X9.707 Y1.601 E0.01439
G1 X9.984 Y0.000 E0.01439
G1 X9.914 Y-0.813 E0.01439
G1 X9.707 Y-1.601 E0.01439
;end outer 

; centre to left
G1 X12.981 Y0.014 F1200
G1 X12.963 Y0.481 E0.00820
G1 X12.908 Y0.989 E0.00899
G1 X12.829 Y1.424 E0.00777
G1 X12.687 Y1.974 E0.00999
G1 X12.564 Y2.338 E0.00677
G1 X12.308 Y2.944 E0.01156
G1 F1800
G1 X12.174 Y3.207 E0.00584
G1 X11.803 Y3.819 E0.01413
G1 X11.665 Y4.013 E0.00471
G1 X11.048 Y4.739 E0.01884
G1 X10.433 Y5.296 E0.01640
G1 X9.627 Y5.849 E0.01932
G1 X8.685 Y6.308 E0.02072
G1 X-2.771 Y9.348 E0.23430
G1 X-4.461 Y9.723 E0.03422
G1 X-6.191 Y9.962 E0.03453
G1 X-7.925 Y10.058 E0.03433
G1 X-8.880 Y10.058 E0.01887
G1 X-9.439 Y11.003 F1200
G1 X-8.992 Y10.058 E0.1
G1 X-9.474 Y8.921 E0.00306
; Retrack
G1 X-8.880 Y10.058 
G1 X-7.925 Y10.058 
G1 X-6.191 Y9.962 
G1 X-4.461 Y9.723 
G1 X-2.771 Y9.348 
G1 X8.685 Y6.308 
G1 X9.627 Y5.849 
G1 X10.433 Y5.296 
G1 X11.048 Y4.739 
G1 X11.665 Y4.013 
G1 X11.803 Y3.819 
G1 X12.174 Y3.207 
G1 F1800
G1 X12.308 Y2.944 
G1 X12.564 Y2.338 
G1 X12.687 Y1.974 
G1 X12.829 Y1.424 


G1 X12.981 Y0.014 E0.00855
G1 X12.964 Y-0.472 E0.00921
G1 X12.908 Y-0.993 E0.00755
G1 X12.831 Y-1.415 E0.01078
G1 X12.677 Y-2.009 E0.00597
G1 X12.567 Y-2.330 E0.01179
G1 X12.306 Y-2.948 E0.00497
G1 X12.178 Y-3.200 E0.01222
G1 X11.818 Y-3.795 E0.00454
G1 X11.670 Y-4.006 E0.01380
G1 X11.170 Y-4.611 E0.01718
G1 X10.455 Y-5.277 E0.01928
G1 X9.548 Y-5.895 E0.01699
G1 X8.676 Y-6.310 E0.20819
G1 X-2.771 Y-9.348 E0.03061
G1 X-4.471 Y-9.726 E0.03053
G1 X-6.191 Y-9.962 E0.03053
G1 X-7.925 Y-10.058 E0.09490
G1 X-13.324 Y-10.058 E0.00314
G1 X-13.977 Y-11.194 F1200
G1 X-13.501 Y-10.114 E0.00132
G1 X-13.946 Y-8.841 E0.1

		;	----- END ----- 

G28 X0 Y0 Z5  ; Move away from print
M84     ; disable motors

