; generated by Slic3r 1.3.0-dev on 1970-01-01 at 00:16:20

; This profile prints tissue model with upright square lattice structure.

; external perimeters extrusion width = 0.41mm (2.64mm^3/s)
; perimeters extrusion width = 0.43mm (2.81mm^3/s)
; infill extrusion width = 0.43mm (2.81mm^3/s)
; solid infill extrusion width = 0.43mm (2.81mm^3/s)
; top infill extrusion width = 0.43mm (1.40mm^3/s)

M107 ; disable fan
M104 S200 T1 ; set temperature
G28 ; home all axes
G1 Z5 F5000 ; lift nozzle

; Filament gcode

M109 S200 T1 ; set temperature and wait for it to be reached
G21 ; set units to millimeters
G90 ; use absolute coordinates
M83 ; use relative distances for extrusion
T1 ; change extruder

G1 Z0.500 F1200
G1 X9.252 Y0.786
G1 X9.317 Y-0.000 E0.00213
G1 X9.252 Y-0.786 E0.00213
G1 X9.061 Y-1.549 E0.00212
G1 X8.748 Y-2.266 E0.00211
G1 X8.323 Y-2.916 E0.00210
G1 X7.744 Y-3.521 E0.00226
G1 X7.190 Y-3.941 E0.00188
G1 X6.515 Y-4.286 E0.00205
G1 X5.794 Y-4.504 E0.00203
G1 X5.054 Y-4.588 E0.00201
G1 X0.748 Y-5.533 E0.01190
G1 X-0.400 Y-5.849 E0.00321
G1 X-1.511 Y-6.283 E0.00322
G1 X-3.825 Y-7.473 E0.00703
G1 X-5.129 Y-7.980 E0.00378
G1 X-6.475 Y-8.345 E0.00377
G1 X-7.849 Y-8.566 E0.00376
G1 X-9.236 Y-8.640 E0.00375
G1 X-13.431 Y-8.640 E0.01133
G1 X-13.909 Y-8.640 E0.00113
G1 X-14.129 Y-8.716 E0.00063
G1 X-14.318 Y-8.821 E0.00058
G1 X-14.523 Y-8.983 E0.00071
G1 X-14.681 Y-9.166 E0.00065
G1 X-14.796 Y-9.356 E0.00060
G1 X-14.899 Y-9.604 E0.00073
G1 X-14.951 Y-9.845 E0.00067
G1 X-14.964 Y-10.349 E0.00136
G1 X-14.951 Y-10.519 E0.00046
G1 X-14.913 Y-10.684 E0.00046
G1 X-14.852 Y-10.841 E0.00045
G1 X-14.768 Y-10.986 E0.00045
G1 X-14.663 Y-11.114 E0.00045
G1 X-14.541 Y-11.224 E0.00044
G1 X-14.269 Y-11.371 E0.00083
G1 X-14.100 Y-11.417 E0.00047
G1 X-13.938 Y-11.430 E0.00044
G1 X-2.087 Y-11.430 E0.03200
G1 X8.790 Y-8.438 E0.03046
G1 X9.776 Y-8.096 E0.00282
G1 X10.712 Y-7.628 E0.00283
G1 X11.585 Y-7.040 E0.00284
G1 X12.382 Y-6.342 E0.00286
G1 X13.090 Y-5.545 E0.00288
G1 X13.698 Y-4.660 E0.00290
G1 X14.196 Y-3.703 E0.00291
G1 X14.577 Y-2.687 E0.00293
G1 X14.834 Y-1.629 E0.00294
G1 X14.964 Y-0.546 E0.00295
G1 X14.964 Y0.546 E0.00295
G1 X14.834 Y1.629 E0.00295
G1 X14.577 Y2.687 E0.00294
G1 X14.196 Y3.703 E0.00293
G1 X13.698 Y4.660 E0.00291
G1 X13.145 Y5.465 E0.00264
G1 X12.382 Y6.342 E0.00314
G1 X11.585 Y7.040 E0.00286
G1 X10.712 Y7.628 E0.00284
G1 X9.776 Y8.096 E0.00283
G1 X8.790 Y8.438 E0.00282
G1 X-2.087 Y11.430 E0.03046
G1 X-9.663 Y11.430 E0.02046
G1 X-9.825 Y11.417 E0.00044
G1 X-9.981 Y11.377 E0.00043
G1 X-10.115 Y11.319 E0.00040
G1 X-10.266 Y11.224 E0.00048
G1 X-10.388 Y11.114 E0.00044
G1 X-10.493 Y10.986 E0.00045
G1 X-10.577 Y10.841 E0.00045
G1 X-10.638 Y10.684 E0.00045
G1 X-10.676 Y10.521 E0.00045
G1 X-10.684 Y9.868 E0.00176
G1 X-10.646 Y9.652 E0.00059
G1 X-10.576 Y9.443 E0.00059
G1 X-10.476 Y9.249 E0.00059
G1 X-10.348 Y9.073 E0.00059
G1 X-10.196 Y8.921 E0.00058
G1 X-10.024 Y8.796 E0.00058
G1 X-9.835 Y8.701 E0.00057
G1 X-9.637 Y8.640 E0.00056
G1 X-9.236 Y8.640 E0.00108
G1 X-7.849 Y8.566 E0.00375
G1 X-6.475 Y8.345 E0.00376
G1 X-5.129 Y7.980 E0.00377
G1 X-3.825 Y7.473 E0.00378
G1 X-1.511 Y6.283 E0.00703
G1 X-0.400 Y5.849 E0.00322
G1 X0.748 Y5.533 E0.00321
G1 X5.054 Y4.588 E0.01190
G1 X5.794 Y4.504 E0.00201
G1 X6.515 Y4.286 E0.00203
G1 X7.190 Y3.941 E0.00205
G1 X7.846 Y3.430 E0.00225
G1 X8.323 Y2.916 E0.00189
G1 X8.748 Y2.266 E0.00210
G1 X9.061 Y1.549 E0.00211
G1 X9.252 Y0.786 E0.00212
G1 X9.317 Y-0.000 E0.00213
G1 X9.252 Y-0.786 E0.00213

; inner
G1 X9.061 Y-1.549
G1 X12.493 Y-0.485 
G1 X12.492 Y0.494 E0.00264
G1 X12.361 Y1.464 E0.00263
G1 X12.102 Y2.404 E0.00262
G1 X11.720 Y3.297 E0.00261
G1 X11.222 Y4.125 E0.00259
G1 X10.619 Y4.870 E0.00257
G1 X9.923 Y5.519 E0.00255
G1 X9.147 Y6.059 E0.00253
G1 X8.308 Y6.478 E0.03056
G1 X-2.593 Y9.523 E0.00451
G1 X-7.527 Y10.038 E0.00238
G1 X-8.323 Y8.552 
G1 X-7.527 Y10.038 E0.00238
G1 X-8.323 Y11.552 E0.00238 
G1 X-7.527 Y10.028 
G1 X-2.593 Y9.523 
G1 X8.308 Y6.478 
G1 X9.147 Y6.059 
G1 X9.923 Y5.519 
G1 X10.619 Y4.870 
G1 X11.222 Y4.125 
G1 X11.720 Y3.297 
G1 X12.102 Y2.404 

G1 X12.361 Y1.464 E0.00264
G1 X12.492 Y0.494 E0.00264
G1 X12.493 Y-0.485 E0.00264
G1 X12.363 Y-1.455 E0.00264
G1 X12.105 Y-2.396 E0.00263
G1 X11.723 Y-3.289 E0.00262
G1 X11.227 Y-4.117 E0.00261
G1 X10.625 Y-4.864 E0.00259
G1 X9.929 Y-5.513 E0.00257
G1 X9.154 Y-6.054 E0.00255
G1 X8.309 Y-6.477 E0.00255
G1 X-1.593 Y-9.523 E0.03056
G1 X-3.018 Y-9.903 E0.00451
;G1 X-5.866 Y-10.142 E0.00450
;G1 X-7.527 Y-10.238 E0.00449
G1 X-11.684 Y-10.038 E0.01392

G1 X-12.340 Y-11.570
G1 X-11.684 Y-10.038 E0.01392
G1 X-12.340 Y-8.752 E0.00240
		;	----- END ----- 

G28 X0 Y0 Z5  ; Move away from print
M84     ; disable motors

