; generated by Slic3r 1.3.0-dev on 1970-01-01 at 00:16:20

; This profile prints tissue model with upright square lattice structure.

; external perimeters extrusion width = 0.41mm (2.64mm^3/s)
; perimeters extrusion width = 0.43mm (2.81mm^3/s)
; infill extrusion width = 0.43mm (2.81mm^3/s)
; solid infill extrusion width = 0.43mm (2.81mm^3/s)
; top infill extrusion width = 0.43mm (1.40mm^3/s)

M107 ; disable fan
M104 S200 T1 ; set temperature
G28 ; home all axes
G1 Z5 F5000 ; lift nozzle

; Filament gcode

M109 S200 T1 ; set temperature and wait for it to be reached
G21 ; set units to millimeters
G90 ; use absolute coordinates
M83 ; use relative distances for extrusion
T1 ; change extruder

; Start at centre, track right

;designated start 
G1 Z0.400 F1200 
G1 X0.00 Y0.00 F1200
G1 X10 Y0.903 ; perimeter
G1 F300
G1 X11.016 Y0.903 E0.02

G1 X11.094 Y-0.000 E0.02091 ; perimeter
G1 X11.016 Y-0.903 E0.02091 ; perimeter
G1 X10.786 Y-1.779 E0.02091 ; perimeter
G1 X10.390 Y-2.634 E0.02174 ; perimeter
G1 X9.898 Y-3.352 E0.02007 ; perimeter
G1 X9.267 Y-4.002 E0.02091 ; perimeter
G1 X8.527 Y-4.539 E0.02111 ; perimeter
G1 X7.669 Y-4.954 E0.02200 ; perimeter
G1 X6.853 Y-5.192 E0.01961 ; perimeter
G1 X5.909 Y-5.303 E0.02192 ; perimeter
G1 X0.920 Y-6.343 E0.11761 ; perimeter
G1 X-0.409 Y-6.690 E0.03169 ; perimeter
G1 X-1.691 Y-7.165 E0.03154 ; perimeter
G1 X-4.411 Y-8.488 E0.06979 ; perimeter
G1 X-5.423 Y-8.876 E0.02502 ; perimeter
G1 X-5.931 Y-9.047 E0.01237 ; perimeter
G1 X-6.735 Y-9.273 E0.01926 ; perimeter
G1 X-7.524 Y-9.459 E0.01870 ; perimeter
G1 X-8.075 Y-9.561 E0.01294 ; perimeter
G1 X-9.174 Y-9.713 E0.02559 ; perimeter
G1 X-10.792 Y-9.799 E0.03739 ; perimeter
G1 X-15.310 Y-9.800 E0.10426 ; perimeter
G1 F1200
; Merge horn to centre from original

; Reversed lines (right horn)
G1 X-15.643 Y-9.842 E0.00452 ; perimeter
G1 X-15.810 Y-9.800 E0.01123 ; perimeter
G1 X-16.237 Y-9.801 E0.00789 ; perimeter
G1 X-16.518 Y-9.903 E0.00507 ; perimeter
G1 X-16.685 Y-9.999 E0.00616 ; perimeter
G1 X-16.868 Y-10.145 E0.00724 ; perimeter
G1 X-17.047 Y-10.355 E0.00507 ; perimeter
G1 X-17.148 Y-10.519 E0.00611 ; perimeter
G1 X-17.237 Y-10.733 E0.00626 ; perimeter
G1 X-17.290 Y-10.965 E0.01392 ; perimeter
G1 X-17.304 Y-11.493 E0.00737 ; perimeter
G1 X-17.264 Y-11.771 E0.00515 ; perimeter
G1 X-17.195 Y-11.954 E0.00823 ; perimeter
G1 X-17.011 Y-12.207 E0.00581 ; perimeter
G1 X-16.837 Y-12.342 E0.00654 ; perimeter
G1 X-16.613 Y-12.451 E0.00412 ; perimeter
G1 X-16.460 Y-12.483 E0.00438 ; perimeter
G1 X-16.294 Y-12.500 E0.01354 ; perimeter
G1 X-15.780 Y-12.500 E0.00226 ; perimeter
 ; Resume outer perimeter
G1 F1200
G1 X-2.466 Y-12.499 E0.29973 ; perimeter
G1 X10.233 Y-9.181 E0.30700 ; perimeter
G1 X11.430 Y-8.779 E0.02955 ; perimeter
G1 X12.522 Y-8.247 E0.02841 ; perimeter
G1 X13.432 Y-7.656 E0.02538 ; perimeter
G1 X14.344 Y-6.896 E0.02777 ; perimeter
G1 X15.153 Y-6.028 E0.02777 ; perimeter
G1 X15.348 Y-5.783 E0.00732 ; perimeter
G1 X15.848 Y-5.066 E0.02046 ; perimeter
G1 X16.041 Y-4.747 E0.00871 ; perimeter
G1 X16.418 Y-4.025 E0.01907 ; perimeter
G1 X16.592 Y-3.630 E0.01009 ; perimeter
G1 X16.853 Y-2.920 E0.01768 ; perimeter
G1 X16.992 Y-2.450 E0.01148 ; perimeter
G1 X17.146 Y-1.771 E0.01629 ; perimeter
G1 X17.234 Y-1.228 E0.01287 ; perimeter
G1 X17.295 Y-0.593 E0.01490 ; perimeter
G1 X17.314 Y-0.016 E0.01352 ; perimeter
G1 X17.295 Y0.593 E0.01426 ; perimeter
G1 X17.234 Y1.228 E0.01490 ; perimeter
G1 X17.146 Y1.771 E0.01287 ; perimeter
G1 X16.992 Y2.450 E0.01629 ; perimeter
G1 X16.853 Y2.920 E0.01148 ; perimeter
G1 X16.592 Y3.630 E0.01768 ; perimeter
G1 X16.418 Y4.025 E0.01009 ; perimeter
G1 X16.041 Y4.747 E0.01907 ; perimeter
G1 X15.848 Y5.066 E0.00871 ; perimeter
G1 X15.348 Y5.783 E0.02046 ; perimeter
G1 X15.153 Y6.028 E0.00732 ; perimeter
G1 X14.344 Y6.896 E0.02777 ; perimeter
G1 X13.562 Y7.560 E0.02399 ; perimeter
G1 F1200
G1 X12.432 Y8.297 E0.03550 ; perimeter
G1 X11.360 Y8.808 E0.03125 ; perimeter
G1 X10.233 Y9.181 E0.03126 ; perimeter
G1 X-2.466 Y12.499 E0.34538 ; perimeter
G1 X-10.280 Y12.500 E0.20562 ; perimeter
G1 X-10.363 Y12.479 E0.00226 ; perimeter
G1 F1200
G1 X-10.530 Y12.437 E0.00535 ; perimeter
G1 F1200
G1 X-10.615 Y12.458 E0.00271 ; perimeter
G1 F1200
G1 X-10.784 Y12.500 E0.00463 ; perimeter
G1 X-11.425 Y12.490 E0.01706 ; perimeter
G1 X-11.758 Y12.391 E0.00924 ; perimeter
G1 X-11.892 Y12.309 E0.00417 ; perimeter
G1 X-12.008 Y12.204 E0.00416 ; perimeter
G1 X-12.113 Y12.088 E0.00416 ; perimeter
G1 X-12.185 Y11.971 E0.00365 ; perimeter
G1 X-12.282 Y11.694 E0.00779 ; perimeter
G1 X-12.300 Y11.491 E0.00542 ; perimeter
G1 X-12.299 Y10.985 E0.01347 ; perimeter
G1 X-12.260 Y10.776 E0.00565 ; perimeter
G1 X-12.149 Y10.498 E0.00797 ; perimeter
G1 X-11.956 Y10.218 E0.00905 ; perimeter
G1 X-11.799 Y10.072 E0.00568 ; perimeter
G1 X-11.625 Y9.949 E0.00568 ; perimeter
G1 X-11.304 Y9.816 E0.00924 ; perimeter
G1 X-11.243 Y9.800 E0.00168 ; perimeter
G1 X-10.780 Y9.800 E0.01231 ; perimeter
G1 X-10.696 Y9.818 E0.00229 ; perimeter
G1 F1200
G1 X-10.528 Y9.855 E0.00549 ; perimeter
G1 F1200
G1 X-10.369 Y9.807 E0.00529 ; perimeter
G1 F1200
G1 X-10.289 Y9.783 E0.00226 ; perimeter
G1 X-9.174 Y9.711 E0.03046 ; perimeter
G1 F1200
G1 X-8.743 Y9.661 E0.01002 ; perimeter
G1 X-7.523 Y9.460 E0.02851 ; perimeter
G1 X-7.226 Y9.396 E0.00702 ; perimeter
G1 X-5.741 Y8.989 E0.03553 ; perimeter
G1 X-4.301 Y8.444 E0.03553 ; perimeter
G1 X-1.691 Y7.165 E0.06707 ; perimeter
G1 X-0.409 Y6.690 E0.03154 ; perimeter
G1 X0.920 Y6.343 E0.03169 ; perimeter
G1 X5.909 Y5.303 E0.11761 ; perimeter
G1 X6.853 Y5.192 E0.02192 ; perimeter
G1 X7.722 Y4.935 E0.02091 ; perimeter
G1 X8.527 Y4.539 E0.02071 ; perimeter
G1 X9.267 Y4.002 E0.02111 ; perimeter
G1 X9.898 Y3.352 E0.02091 ; perimeter
G1 X10.410 Y2.604 E0.02091 ; perimeter
G1 X10.786 Y1.779 E0.02091 ; perimeter
G1 X11.016 Y0.903 E0.02091 ; perimeter
G1 X11.094 Y-0.000 E0.02091 ; perimeter
G1 X11.094 Y-0.000 E0.02091 ; perimeter
G1 X11.016 Y-0.903 ; perimeter

; Skip to inner, travel left
G1 X14.404 Y0.534 ; perimeter
G1 X14.343 Y1.099 E0.01320 ; perimeter
G1 X14.255 Y1.582 E0.01141 ; perimeter
G1 X14.086 Y2.227 E0.01551 ; perimeter
G1 X13.960 Y2.598 E0.00910 ; perimeter
G1 X13.691 Y3.239 E0.01614 ; perimeter
G1 X13.526 Y3.564 E0.00846 ; perimeter
G1 X13.134 Y4.213 E0.01762 ; perimeter
G1 X12.961 Y4.459 E0.00699 ; perimeter
G1 X12.415 Y5.121 E0.01994 ; perimeter
G1 F1200
G1 X12.276 Y5.266 E0.00529 ; perimeter
G1 X11.484 Y5.969 E0.02785 ; perimeter
G1 X10.601 Y6.554 E0.02785 ; perimeter
G1 X9.650 Y7.008 E0.02772 ; perimeter
G1 X-3.079 Y10.387 E0.34632 ; perimeter
G1 X-4.957 Y10.804 E0.05058 ; perimeter
G1 X-6.879 Y11.069 E0.05104 ; perimeter
G1 X-8.806 Y11.176 E0.05074 ; perimeter
; Left apex
G1 X-9.530 Y12.6 ; perimeter
G1 X-8.866 Y11.176 E0.02789 ; perimeter
G1 X-9.488 Y9.5 E0.00190 ; perimeter
G1 X-8.866 Y11.176 ; perimeter

G1 F1200
G1 X-8.866 Y11.176  ; perimeter
G1 X-6.879 Y11.069  ; perimeter
G1 X-4.957 Y10.804  ; perimeter
G1 X-3.079 Y10.387  ; perimeter
G1 X9.650 Y7.008  ; perimeter
G1 X10.601 Y6.554  ; perimeter
G1 X11.484 Y5.969  ; perimeter
G1 X12.276 Y5.266  ; perimeter
G1 F1200
G1 X12.415 Y5.121  ; perimeter
G1 X12.961 Y4.459  ; perimeter
G1 X13.134 Y4.213  ; perimeter
G1 X13.526 Y3.564  ; perimeter
G1 X13.691 Y3.239  ; perimeter
G1 X13.960 Y2.598  ; perimeter

G1 X14.404 Y0.534 E0.01320; perimeter
G1 X14.404 Y0.534 E0.01205 ; perimeter
G1 X14.423 Y0.016 E0.01256 ; perimeter
G1 X14.405 Y-0.524 E0.01436 ; perimeter
G1 X14.337 Y-1.139 E0.01025 ; perimeter
G1 X14.257 Y-1.572 E0.01500 ; perimeter
G1 X14.095 Y-2.197 E0.00961 ; perimeter
G1 X13.964 Y-2.589 E0.01647 ; perimeter
G1 X13.689 Y-3.243 E0.00814 ; perimeter
G1 X13.531 Y-3.555 E0.01879 ; perimeter
G1 X13.112 Y-4.247 E0.00582 ; perimeter
G1 X12.967 Y-4.451 E0.02460 ; perimeter
G1 X12.282 Y-5.259 E0.02461 ; perimeter
G1 X11.491 Y-5.963 E0.02323 ; perimeter
G1 X10.661 Y-6.520 E0.02633 ; perimeter
G1 X9.640 Y-7.011 E0.30574 ; perimeter
G1 X-3.079 Y-10.387 E0.04495 ; perimeter
G1 X-4.968 Y-10.806 E0.04483 ; perimeter
G1 X-6.879 Y-11.069 E0.04483 ; perimeter
G1 X-8.806 Y-11.176 E0.14069 ; perimeter
G1 F1200
G1 X-13.862 Y-11.176 E0.00322 ; perimeter
G1 X-14.560 Y-9.563 ; perimeter
G1 F1200
G1 X-13.862 Y-11.176 E0.00322 ; perimeter
G1 X-14.481 Y-12.508 E0.00146 ; perimeter

		;	----- END ----- 

M104 S0 ; turn off temperature
G1 X0 Y-25 Z5  ; Move away from print
M84     ; disable motors

